MonoIcons/scalable/status/orientation-landscape-symbolic.svg

<?xml version="1.0" encoding="UTF-8"?>
<svg height="16px" viewBox="0 0 16 16" width="16px" xmlns="http://www.w3.org/2000/svg">
    <path d="m 2.15625 3 c -0.613281 0 -1.113281 0.496094 -1.113281 1.113281 v 7.84375 c 0 0.617188 0.5 1.117188 1.113281 1.117188 h 11.738281 c 0.617188 0 1.117188 -0.5 1.117188 -1.117188 v -7.84375 c 0 -0.617187 -0.5 -1.113281 -1.117188 -1.113281 z m 5.84375 3 l 4 4 h -8 z m 0 0" fill="#2e3436"/>
</svg>

<svg width="16" height="16" viewBox="0 0 16 16" fill="none" xmlns="http://www.w3.org/2000/svg">
<path d="M2.15625 3C1.54297 3 1.04297 3.49609 1.04297 4.11328V11.957C1.04297 12.5742 1.54297 13.0742 2.15625 13.0742H13.8945C14.5117 13.0742 15.0117 12.5742 15.0117 11.957V4.11328C15.0117 3.49609 14.5117 3 13.8945 3H2.15625ZM8 6L12 10H4L8 6Z" fill="#2E3436"/>
</svg>
